apps/scalable/tixat.svg

<?xml version="1.0" standalone="no"?><!-- Generator: Gravit.io --><svg xmlns="http://www.w3.org/2000/svg" xmlns:xlink="http://www.w3.org/1999/xlink" style="isolation:isolate" viewBox="0 0 256 256" width="256" height="256"><g id="Group" filter="url(#ghNOOBTqCFws0kSlc8O2JpAo7ZKbO9cT)"><linearGradient id="_lgradient_476" x1="0.23299999999999998" y1="-0.071" x2="0.9329999999999999" y2="0.9239327523625785" gradientTransform="matrix(244.648,0,0,228.338,5.676,11.947)" gradientUnits="userSpaceOnUse"><stop offset="0%" stop-opacity="1" style="stop-color:rgb(232,232,232)"/><stop offset="100%" stop-opacity="1" style="stop-color:rgb(245,245,245)"/></linearGradient><path d=" M 165.685 11.947 C 239.74 11.947 250.324 22.504 250.324 96.491 L 250.324 155.742 C 250.324 229.728 239.74 240.285 165.685 240.285 L 90.315 240.285 C 16.26 240.285 5.676 229.728 5.676 155.742 L 5.676 96.491 C 5.676 22.504 16.26 11.947 90.315 11.947 L 165.685 11.947 L 165.685 11.947 Z " id="Path" fill="url(#_lgradient_476)"/></g><defs><filter id="ghNOOBTqCFws0kSlc8O2JpAo7ZKbO9cT" x="-200%" y="-200%" width="400%" height="400%" filterUnits="objectBoundingBox" color-interpolation-filters="sRGB"><feGaussianBlur xmlns="http://www.w3.org/2000/svg" in="SourceGraphic" stdDeviation="4.294"/><feOffset xmlns="http://www.w3.org/2000/svg" dx="0" dy="4" result="pf_100_offsetBlur"/><feFlood xmlns="http://www.w3.org/2000/svg" flood-color="#000000" flood-opacity="0.4"/><feComposite xmlns="http://www.w3.org/2000/svg" in2="pf_100_offsetBlur" operator="in" result="pf_100_dropShadow"/><feBlend xmlns="http://www.w3.org/2000/svg" in="SourceGraphic" in2="pf_100_dropShadow" mode="normal"/></filter></defs><g opacity="0.2"><path d=" M 5.676 126.116 L 5.676 155.742 C 5.676 229.728 16.26 240.285 90.315 240.285 L 165.685 240.285 C 239.74 240.285 250.324 229.728 250.324 155.742 L 250.324 126.116 L 5.676 126.116 L 5.676 126.116 Z " id="Path" fill="rgb(255,255,255)"/></g><g opacity="0.2"><path d=" M 128 11.947 L 128 240.285 L 165.685 240.285 C 239.74 240.285 250.324 229.728 250.324 155.742 L 250.324 96.491 C 250.324 22.504 239.74 11.947 165.685 11.947 L 128 11.947 L 128 11.947 Z " id="Path" fill="rgb(255,255,255)"/></g><g id="imagomarca"><defs><filter id="8IP3ciR4ilPKvOJMoxBs1RQmf0hT0tFQ" x="-200%" y="-200%" width="400%" height="400%" filterUnits="objectBoundingBox" color-interpolation-filters="sRGB"><feGaussianBlur xmlns="http://www.w3.org/2000/svg" stdDeviation="0.993"/></filter></defs><g opacity="0.3" filter="url(#8IP3ciR4ilPKvOJMoxBs1RQmf0hT0tFQ)"><path d=" M 124.459 56.44 L 66.143 184.734 C 65.520487 186.005977 65.638397 187.515763 66.450834 188.675674 C 67.263271 189.835586 68.641866 190.46235 70.05 190.312 C 71.458419 190.160322 72.672886 189.254643 73.22 187.948 L 127.994 67.437 L 182.774 187.948 C 183.321433 189.254292 184.535919 190.159546 185.944163 190.310977 C 187.352407 190.462408 188.731589 189.836056 189.544232 188.676016 C 190.356875 187.515975 190.474397 186.005794 189.851 184.734 L 131.536 56.44 L 124.459 56.44 L 124.459 56.44 Z " id="Path" fill="rgb(12,16,10)"/></g><defs><filter id="1HIocSWhGQWjupprVLlMZMjokidRBW0f" x="-200%" y="-200%" width="400%" height="400%" filterUnits="objectBoundingBox" color-interpolation-filters="sRGB"><feGaussianBlur xmlns="http://www.w3.org/2000/svg" stdDeviation="0.993"/></filter></defs><g opacity="0.3" filter="url(#1HIocSWhGQWjupprVLlMZMjokidRBW0f)"><path d=" M 65.879 54.121 C 64.296982 54.071662 62.842965 54.986272 62.202418 56.433654 C 61.561871 57.881035 61.862666 59.572248 62.963 60.71 L 183.48 189.004 C 184.42706 190.034359 185.854798 190.476236 187.218316 190.160987 C 188.581835 189.845738 189.670721 188.822012 190.069402 187.480513 C 190.468083 186.139015 190.115035 184.686759 189.145 183.678 L 68.628 55.384 C 67.919681 54.609239 66.928237 54.15373 65.879 54.121 Z " id="Path" fill="rgb(3,16,0)"/></g><defs><filter id="Q1Nz6t4ye12J291dO7N389AehRMts6DI" x="-200%" y="-200%" width="400%" height="400%" filterUnits="objectBoundingBox" color-interpolation-filters="sRGB"><feGaussianBlur xmlns="http://www.w3.org/2000/svg" stdDeviation="0.993"/></filter></defs><g opacity="0.3" filter="url(#Q1Nz6t4ye12J291dO7N389AehRMts6DI)"><path d=" M 190.391 54.121 C 189.245849 54.075845 188.139056 54.537954 187.366 55.384 L 66.849 183.678 C 65.897602 184.689955 65.558345 186.132605 65.959024 187.462517 C 66.359704 188.792429 67.439447 189.807559 68.791524 190.125517 C 70.143602 190.443475 71.562602 190.015955 72.514 189.004 L 193.037 60.71 C 194.103857 59.607594 194.42273 57.980916 193.851041 56.557311 C 193.279351 55.133705 191.923996 54.179361 190.391 54.121 Z " id="Path" fill="rgb(3,14,0)"/></g><defs><filter id="bi8kMPBuuBvYGRSgnj2nsx8m8GJZN2Gd" x="-200%" y="-200%" width="400%" height="400%" filterUnits="objectBoundingBox" color-interpolation-filters="sRGB"><feGaussianBlur xmlns="http://www.w3.org/2000/svg" stdDeviation="0.993"/></filter></defs><g opacity="0.3" filter="url(#bi8kMPBuuBvYGRSgnj2nsx8m8GJZN2Gd)"><path d=" M 58.021 54.161 C 56.590603 54.096082 55.240184 54.822224 54.505586 56.051295 C 53.770987 57.280366 53.770987 58.813634 54.505586 60.042705 C 55.240184 61.271776 56.590603 61.997918 58.021 61.933 L 197.979 61.933 C 199.397065 61.978502 200.727326 61.247947 201.449821 60.02689 C 202.172315 58.805832 202.172315 57.288168 201.449821 56.06711 C 200.727326 54.846053 199.397065 54.115498 197.979 54.161 L 58.021 54.161 L 58.021 54.161 Z " id="Path" fill="rgb(3,14,0)"/></g><defs><filter id="GcwnM9VyUOWt3Nf0JUeAIHFUgB5v0C4l" x="-200%" y="-200%" width="400%" height="400%" filterUnits="objectBoundingBox" color-interpolation-filters="sRGB"><feGaussianBlur xmlns="http://www.w3.org/2000/svg" stdDeviation="0.993"/></filter></defs><g opacity="0.3" filter="url(#GcwnM9VyUOWt3Nf0JUeAIHFUgB5v0C4l)"><path d=" M 127.937 54.104 C 125.791669 54.137443 124.078506 55.901611 124.108 58.047 L 124.108 194.118 C 124.108 195.507406 124.849239 196.79127 126.0525 197.485973 C 127.255761 198.180676 128.738239 198.180676 129.9415 197.485973 C 131.144761 196.79127 131.886 195.507406 131.886 194.118 L 131.886 58.047 C 131.900445 56.995845 131.488835 55.983595 130.744921 55.240811 C 130.001007 54.498027 128.988132 54.087956 127.937 54.104 L 127.937 54.104 Z " id="Path" fill="rgb(0,0,0)"/></g><path d=" M 124.459 56.44 L 66.143 184.734 C 65.520487 186.005977 65.638397 187.515763 66.450834 188.675674 C 67.263271 189.835586 68.641866 190.46235 70.05 190.312 C 71.458419 190.160322 72.672886 189.254643 73.22 187.948 L 127.994 67.437 L 182.774 187.948 C 183.321433 189.254292 184.535919 190.159546 185.944163 190.310977 C 187.352407 190.462408 188.731589 189.836056 189.544232 188.676016 C 190.356875 187.515975 190.474397 186.005794 189.851 184.734 L 131.536 56.44 L 124.459 56.44 L 124.459 56.44 Z " id="Path" fill="rgb(203,13,13)"/><path d=" M 65.879 54.121 C 64.296982 54.071662 62.842965 54.986272 62.202418 56.433654 C 61.561871 57.881035 61.862666 59.572248 62.963 60.71 L 183.48 189.004 C 184.42706 190.034359 185.854798 190.476236 187.218316 190.160987 C 188.581835 189.845738 189.670721 188.822012 190.069402 187.480513 C 190.468083 186.139015 190.115035 184.686759 189.145 183.678 L 68.628 55.384 C 67.919681 54.609239 66.928237 54.15373 65.879 54.121 Z " id="Path" fill="rgb(57,219,14)"/><line x1="190.201" y1="58.047" x2="69.683" y2="186.341" id="Path" vector-effect="non-scaling-stroke" stroke-width="10" stroke="rgb(57,219,14)" stroke-linejoin="miter" stroke-linecap="round" stroke-miterlimit="4"/><path d=" M 58.021 54.161 C 56.590603 54.096082 55.240184 54.822224 54.505586 56.051295 C 53.770987 57.280366 53.770987 58.813634 54.505586 60.042705 C 55.240184 61.271776 56.590603 61.997918 58.021 61.933 L 197.979 61.933 C 199.397065 61.978502 200.727326 61.247947 201.449821 60.02689 C 202.172315 58.805832 202.172315 57.288168 201.449821 56.06711 C 200.727326 54.846053 199.397065 54.115498 197.979 54.161 L 58.021 54.161 L 58.021 54.161 Z " id="Path" fill="rgb(1,117,255)"/><path d=" M 127.937 54.104 C 125.791669 54.137443 124.078506 55.901611 124.108 58.047 L 124.108 194.118 C 124.108 195.507406 124.849239 196.79127 126.0525 197.485973 C 127.255761 198.180676 128.738239 198.180676 129.9415 197.485973 C 131.144761 196.79127 131.886 195.507406 131.886 194.118 L 131.886 58.047 C 131.900445 56.995845 131.488835 55.983595 130.744921 55.240811 C 130.001007 54.498027 128.988132 54.087956 127.937 54.104 L 127.937 54.104 Z " id="Path" fill="rgb(1,117,255)"/></g></svg>

<svg xmlns="http://www.w3.org/2000/svg" style="isolation:isolate" width="256" height="256"><defs><filter id="a" width="270.648" height="254.338" x="-7.32" y="2.95" filterUnits="userSpaceOnUse"><feGaussianBlur xmlns="http://www.w3.org/2000/svg" in="SourceGraphic" stdDeviation="4.294"/><feOffset xmlns="http://www.w3.org/2000/svg" dy="4" result="pf_100_offsetBlur"/><feFlood xmlns="http://www.w3.org/2000/svg" flood-opacity=".4"/><feComposite xmlns="http://www.w3.org/2000/svg" in2="pf_100_offsetBlur" operator="in" result="pf_100_dropShadow"/><feBlend xmlns="http://www.w3.org/2000/svg" in="SourceGraphic" in2="pf_100_dropShadow"/></filter></defs><g filter="url(#a)"><linearGradient id="b" x1=".233" x2=".933" y1="-.071" y2=".995" gradientTransform="matrix(244.648 0 0 228.338 5.676 11.947)" gradientUnits="userSpaceOnUse"><stop offset="0%" stop-color="#e8e8e8"/><stop offset="100%" stop-color="#f5f5f5"/></linearGradient><path fill="url(#b)" d="M165.685 11.947c74.055 0 84.639 10.557 84.639 84.544v59.251c0 73.986-10.584 84.543-84.639 84.543h-75.37c-74.055 0-84.639-10.557-84.639-84.543V96.491c0-73.987 10.584-84.544 84.639-84.544h75.37z"/></g><g opacity=".4"><linearGradient id="c" x1=".517" x2=".517" y2="1"><stop offset="0%" stop-color="#fff"/><stop offset="12.5%" stop-opacity=".098" stop-color="#fff"/><stop offset="92.5%" stop-opacity=".098"/><stop offset="100%" stop-opacity=".498"/></linearGradient><path fill="none" stroke="url(#c)" stroke-linecap="round" stroke-linejoin="round" stroke-width="4.077" d="M165.685 11.947c74.055 0 84.639 10.557 84.639 84.544v59.251c0 73.986-10.584 84.543-84.639 84.543h-75.37c-74.055 0-84.639-10.557-84.639-84.543V96.491c0-73.987 10.584-84.544 84.639-84.544h75.37z" vector-effect="non-scaling-stroke"/></g><path fill="#FFF" d="M5.676 126.116v29.626c0 73.986 10.584 84.543 84.639 84.543h75.37c74.055 0 84.639-10.557 84.639-84.543v-29.626H5.676z" opacity=".1"/><path fill="#FFF" d="M128 11.947v228.338h37.685c74.055 0 84.639-10.557 84.639-84.543V96.491c0-73.987-10.584-84.544-84.639-84.544H128z" opacity=".2"/><defs><filter id="d" width="129.129" height="138.521" x="63.43" y="54.13" filterUnits="userSpaceOnUse"><feGaussianBlur xmlns="http://www.w3.org/2000/svg" stdDeviation=".993"/></filter></defs><path fill="#0C100A" d="M124.459 56.44L66.143 184.734a3.89 3.89 0 0 0 3.907 5.578 3.888 3.888 0 0 0 3.17-2.364l54.774-120.511 54.78 120.511a3.888 3.888 0 1 0 7.077-3.214L131.536 56.44h-7.077z" opacity=".3" filter="url(#d)"/><defs><filter id="e" width="132.981" height="140.761" x="59.56" y="51.81" filterUnits="userSpaceOnUse"><feGaussianBlur xmlns="http://www.w3.org/2000/svg" stdDeviation=".993"/></filter></defs><path fill="#031000" d="M65.879 54.121a3.888 3.888 0 0 0-2.916 6.589L183.48 189.004a3.888 3.888 0 1 0 5.665-5.326L68.628 55.384a3.889 3.889 0 0 0-2.749-1.263z" opacity=".3" filter="url(#e)"/><defs><filter id="f" width="132.987" height="140.762" x="63.46" y="51.8" filterUnits="userSpaceOnUse"><feGaussianBlur xmlns="http://www.w3.org/2000/svg" stdDeviation=".993"/></filter></defs><path fill="#030E00" d="M190.391 54.121a3.89 3.89 0 0 0-3.025 1.263L66.849 183.678a3.887 3.887 0 1 0 5.665 5.326L193.037 60.71a3.888 3.888 0 0 0-2.646-6.589z" opacity=".3" filter="url(#f)"/><defs><filter id="g" width="152.627" height="12.403" x="51.69" y="51.85" filterUnits="userSpaceOnUse"><feGaussianBlur xmlns="http://www.w3.org/2000/svg" stdDeviation=".993"/></filter></defs><path fill="#030E00" d="M58.021 54.161a3.89 3.89 0 1 0 0 7.772h139.958a3.888 3.888 0 1 0 0-7.772H58.021z" opacity=".3" filter="url(#g)"/><defs><filter id="h" width="12.405" height="148.53" x="121.8" y="51.79" filterUnits="userSpaceOnUse"><feGaussianBlur xmlns="http://www.w3.org/2000/svg" stdDeviation=".993"/></filter></defs><path d="M127.937 54.104a3.89 3.89 0 0 0-3.829 3.943v136.071a3.889 3.889 0 1 0 7.778 0V58.047a3.89 3.89 0 0 0-3.949-3.943z" opacity=".3" filter="url(#h)"/><path fill="#CB0D0D" d="M124.459 56.44L66.143 184.734a3.89 3.89 0 0 0 3.907 5.578 3.888 3.888 0 0 0 3.17-2.364l54.774-120.511 54.78 120.511a3.888 3.888 0 1 0 7.077-3.214L131.536 56.44h-7.077z"/><path fill="#39DB0E" d="M65.879 54.121a3.888 3.888 0 0 0-2.916 6.589L183.48 189.004a3.888 3.888 0 1 0 5.665-5.326L68.628 55.384a3.889 3.889 0 0 0-2.749-1.263z"/><path stroke="#39DB0E" stroke-linecap="round" stroke-width="10" vector-effect="non-scaling-stroke" d="M190.201 58.047L69.683 186.341"/><path fill="#0175FF" d="M58.021 54.161a3.89 3.89 0 1 0 0 7.772h139.958a3.888 3.888 0 1 0 0-7.772H58.021z"/><path fill="#0175FF" d="M127.937 54.104a3.89 3.89 0 0 0-3.829 3.943v136.071a3.889 3.889 0 1 0 7.778 0V58.047a3.89 3.89 0 0 0-3.949-3.943z"/></svg>
